X: 24426
T: Low Quebec
R: waltz
M: 3/4
K: Cmajor
|:A2 c2 c2|B2 d2 d2|cd ed cB|^G2 A2 B2|
A2 B2 c2|B2 c2 d2|cd ed cB|^G2 A2 B2|
c2 e2 ee|d2 g2 g^g|a2 A2 A2|^G2 E2 E2|
F2 A2 c2|BA G2 AB|1 c2 E2 c2|c4 Bc:|2 c6|c6||
|:c2 e2 e2|fe dc BA|G2 B2 B2|cB AG FE|
D2 F2 A2|G2 B2 d2|c2 e2 a2|^g2 e2 e2|
fg ag fe|dc BA G2|gf ed cB|AG F2 E2|
D2 F2 A2|G2 c2 B2|c6|c6:|

